!!!OTL: IM GRABE IST RUH
!!!ARE: Europa, Mitteleuropa, Deutschland
!!!SCT: F1038
!!!YEM: Copyright 1995, estate of Helmut Schaffrath.
**kern
*ICvox
*Ivox
*M2/4
*k[f#]
*G:
{8d
=1
4b
8a
8a
=2
4g
8r}
{8d
=3
4g
8g
8g
=4
4b
8b
8b
=5
4dd
4cc
=6
4b
8r}
{8g
=7
4ee
8ee
8ee
=8
8.dd
16cc
8b}
{8dd
=9
8dd
8cc
8b
8a
=10
4b
8r}
{8g
=11
4ee
8ee
8ee
=12
8.dd
16cc
8b}
{8dd
=13
8dd
8cc
8b
8a
=14
4g
8r}
==
!!!AGN: Trauer -, Bregraebnis -, Trost - Lied
!!!ONB: ESAC (Essen Associative Code) Database: FINK
!!!AMT: simple duple
!!!AIN: vox
!!!EED: Helmut Schaffrath
!!!EEV: 1.0
*-
